icons/svg/book-open.svg

<svg width="24" height="24" viewBox="0 0 24 24" fill="none" xmlns="http://www.w3.org/2000/svg">
<path d="M2.75 7.20996C2.75 6.10539 3.64543 5.20996 4.75 5.20996H8.5C10.433 5.20996 12 6.77696 12 8.70996V16.078V19.5949L10.9852 18.8735C10.3082 18.3922 9.49814 18.1336 8.66748 18.1336H4.75C3.64543 18.1336 2.75 17.2381 2.75 16.1336V7.20996Z" stroke="currentColor" stroke-width="1.5" stroke-linecap="round" stroke-linejoin="round"/>
<path d="M21.25 7.20996C21.25 6.10539 20.3546 5.20996 19.25 5.20996H15.5C13.567 5.20996 12 6.77696 12 8.70996V16.078V19.5949L13.0148 18.8735C13.6918 18.3922 14.5019 18.1336 15.3325 18.1336H19.25C20.3546 18.1336 21.25 17.2381 21.25 16.1336V7.20996Z" stroke="currentColor" stroke-width="1.5" stroke-linecap="round" stroke-linejoin="round"/>
</svg>

<svg xmlns="http://www.w3.org/2000/svg" width="24" height="24" fill="none" viewBox="0 0 24 24"><path stroke="currentColor" stroke-linecap="round" stroke-linejoin="round" stroke-width="1.5" d="M2.75 7.21a2 2 0 0 1 2-2H8.5a3.5 3.5 0 0 1 3.5 3.5v10.885l-1.015-.721a4 4 0 0 0-2.318-.74H4.75a2 2 0 0 1-2-2zm18.5 0a2 2 0 0 0-2-2H15.5a3.5 3.5 0 0 0-3.5 3.5v10.885l1.015-.721a4 4 0 0 1 2.317-.74h3.918a2 2 0 0 0 2-2z"/></svg>
